X: 157
T:ROND DE SAINT-VINCENT N 1
M:2/4
L:1/8
Q:1/4=120
Z:Yves BELOTTEAU
K:C % 0 sharps
|GGAB2G2A|AGAB2G2A|AGAB2G2A|AGAB2G2A|
AGAB2G2A|AGAB2G2A|AGAB2G2A|AABB2d2A|
AABc BA2G|GGAB2d2A|AABc BA2G|GGAB2d2A|
AABc BA2G|GGAB2d2A|AABc BA2G|GGA|
W:
W: From "Falaleiro" http://home.t-online.de/home/pheld/homepage.htm

